X: 61
T: No_153_I_Wandered_Away.krn
N: Derived from No_153_I_Wandered_Away.krn
%%abc-version 2.0
%%abcx-abcm2ps-target-version 5.9.1 (29 Sep 2008)
%%abc-creator hum2abc beta
%%abcx-conversion-date 2019/03/15 08:37:56
%%humdrum-veritas 2396886045
%%humdrum-veritas-data 248692192
%%linebreak <none>
%%barnumbers 0
L: 1/8
M: 3/4
K: A clef=bass
[K:clef=bass][M:3/4](F2E2)D2 | 
A,2B,B,B,2 ||  
[M:5/4]A,4-A,4z2 ||  
[M:4/4]D2E3/E/ EEE2 ||  
[M:3/4]E2D2B,2 | 
A,2F,2E,E, ||  
[M:5/8]E,2E,E,E, ||  
[M:2/4]E,3z/ B,/ ||  
[M:3/4]B,2D2DD | 
D2B,2F,2 | 
(A,2F,3/)F,/ A,A, | 
A,2F,F, E, z | 
A,4-A,3/F,/ ||  
[M:2/4]A,3E, | 
E,4 ||  
[M:3/4]B,2A,A, F,F, | 
E,6 | 
D,2B,,2B,,3/E,/ | 
E,2z4 |]  



